X:1
T: Fraser Patrick's Reel
C:
R:Reel
Q: 232
K:A
M:4/4
L:1/8
E|A2 cB A2 c2|e2 e2 e4|e^d ef e=d cA|GA Bc d4|
E2 GB d2 e2|g2 g2 g4|gf ed cB AG|AB cd e4|
A2 cB A2 c2|e2 e2 e4|e^d ef ef ga|b2 d2 d4|
b2 b2 ba gf|e2 e2 e4|B^A Bc de fg|a4-a2 z2|
c'4 a4|e2 ef e4|AB cB AB ce|f4 f4|
b4 f4|d2 de d4|GA Bc de fe|c4 c4|
c'4 a4|e2 ef e4|AB cB AB ce|f4 f4|
b^a bd' ba gf|e^d ef e4|B^A Bc de fg|a4-a3||
